archdroid-icon-theme/Archdroid-DeepOrangeDark/devices/scalable/xfce-display-mirror.svg

<?xml version="1.0" encoding="UTF-8" standalone="no"?>
<svg
   xmlns:dc="http://purl.org/dc/elements/1.1/"
   xmlns:cc="http://creativecommons.org/ns#"
   xmlns:rdf="http://www.w3.org/1999/02/22-rdf-syntax-ns#"
   xmlns:svg="http://www.w3.org/2000/svg"
   xmlns="http://www.w3.org/2000/svg"
   xmlns:sodipodi="http://sodipodi.sourceforge.net/DTD/sodipodi-0.dtd"
   xmlns:inkscape="http://www.inkscape.org/namespaces/inkscape"
   fill="#BF360C"
   width="48"
   height="48"
   viewBox="0 0 48 48"
   id="svg2"
   version="1.1"
   inkscape:version="0.91 r13725"
   sodipodi:docname="xfce-display-mirror.svg">
  <metadata
     id="metadata10">
    <rdf:RDF>
      <cc:Work
         rdf:about="">
        <dc:format>image/svg+xml</dc:format>
        <dc:type
           rdf:resource="http://purl.org/dc/dcmitype/StillImage" />
        <dc:title></dc:title>
      </cc:Work>
    </rdf:RDF>
  </metadata>
  <defs
     id="defs8" />
  <sodipodi:namedview
     pagecolor="#ffffff"
     bordercolor="#666666"
     borderopacity="1"
     objecttolerance="10"
     gridtolerance="10"
     guidetolerance="10"
     inkscape:pageopacity="0"
     inkscape:pageshadow="2"
     inkscape:window-width="1366"
     inkscape:window-height="713"
     id="namedview6"
     showgrid="false"
     inkscape:snap-bbox="true"
     inkscape:bbox-nodes="true"
     inkscape:zoom="4.144188127079495"
     inkscape:cx="-39.98726059143205"
     inkscape:cy="24.32111544255962"
     inkscape:window-x="0"
     inkscape:window-y="30"
     inkscape:window-maximized="1"
     inkscape:current-layer="svg2"
     inkscape:object-paths="true"
     inkscape:snap-intersection-paths="true"
     inkscape:object-nodes="true"
     inkscape:snap-smooth-nodes="true"
     inkscape:snap-midpoints="true"
     inkscape:snap-nodes="false" />
  <path
     style="opacity:1;fill:#BF360C;fill-opacity:1;fill-rule:nonzero;stroke:none;stroke-width:4;stroke-miterlimit:4;stroke-dasharray:none;stroke-opacity:1"
     d="M 11.63671875 6 C 9.622173235416412 6 8 7.560999999999982 8 9.5 L 8 14 L 12 14 L 12 10 L 44 10 L 44 30 L 40 30 L 40 34 L 44.36328125 34 C 46.37782676458359 34 48 32.439 48 30.5 L 48 9.5 C 48 7.560999999999981 46.37782676458358 5.999999999999999 44.36328125 6 L 11.63671875 6 z "
     id="path4632" />
  <path
     style="opacity:1;fill:#BF360C;fill-opacity:1;fill-rule:nonzero;stroke:none;stroke-width:4;stroke-miterlimit:4;stroke-dasharray:none;stroke-opacity:1"
     d="m 3.63671875,14.00000000000006 c -2.014545514583588,0 -3.63671875,1.56099999999998 -3.63671875,3.5 l 0,21 c 0,1.93899999999999 1.622173235416412,3.5 3.63671875,3.5 l 32.7265625,0 c 2.01454551458359,0 3.63671875,-1.56100000000001 3.63671875,-3.5 l 0,-21 c 0,-1.93900000000002 -1.62217323541641,-3.5 -3.63671875,-3.5 l -32.7265625,0 z m 0.36328125,4 32,0 0,20 -32,0 0,-20 z"
     id="rect4278"
     inkscape:connector-curvature="0" />
</svg>

<svg xmlns="http://www.w3.org/2000/svg" fill="#BF360C" viewBox="0 0 48 48"><path d="m11.637 6c-2.01 0-3.637 1.561-3.637 3.5v4.5h4v-4h32v20h-4v4h4.363c2.01 0 3.637-1.561 3.637-3.5v-21c0-1.939-1.622-3.5-3.637-3.5h-32.727"/><path d="m3.637 14c-2.01 0-3.637 1.561-3.637 3.5v21c0 1.939 1.622 3.5 3.637 3.5h32.727c2.01 0 3.637-1.561 3.637-3.5v-21c0-1.939-1.622-3.5-3.637-3.5h-32.727m.363 4h32v20h-32v-20"/></svg>
